;Generated with Cura_SteamEngine 15.01
; Default start code
G28 ; Home extruder
;  AUTONIVELADO
G1 Z15 F100
M107 ; Turn off fan
G90 ; Absolute positioning
M82 ; Extruder in absolute mode
M190 S55
; Activate all used extruder
M104 T0 S205
G92 E0 ; Reset extruder position
; Wait for all used extruders to reach temperature
M109 T0 S205
;Layer count: 174
;LAYER:0
M106 S127
G0 F6000 X105.250 Y114.499 Z0.400
;TYPE:SKIRT
G1 F1500 X105.250 Y200.999 E7.19250
G1 X116.999 Y200.999 E8.16944
G1 X116.999 Y192.499 E8.87622
G1 X132.999 Y192.499 E10.20662
G1 X132.999 Y200.999 E10.91340
G1 X145.750 Y200.999 E11.97365
G1 X145.750 Y114.499 E19.16615
G1 X132.999 Y114.499 E20.22640
G1 X132.999 Y122.999 E20.93318
G1 X116.999 Y122.999 E22.26359
G1 X116.999 Y114.499 E22.97036
G1 X105.250 Y114.499 E23.94730
G0 F6000 X104.750 Y113.999
G1 F1500 X104.750 Y201.499 E31.22295
G1 X117.499 Y201.499 E32.28304
G1 X117.499 Y192.999 E32.98981
G1 X132.499 Y192.999 E34.23707
G1 X132.499 Y201.499 E34.94385
G1 X146.250 Y201.499 E36.08725
G1 X146.250 Y113.999 E43.36290
G1 X132.499 Y113.999 E44.50630
G1 X132.499 Y122.499 E45.21308
G1 X117.499 Y122.499 E46.46033
G1 X117.499 Y113.999 E47.16711
G1 X104.750 Y113.999 E48.22720
G0 F6000 X104.250 Y113.499
G1 F1500 X104.250 Y201.999 E55.58600
G1 X117.999 Y201.999 E56.72923
G1 X117.999 Y193.499 E57.43601
G1 X131.999 Y193.499 E58.60012
G1 X131.999 Y201.999 E59.30690
G1 X146.750 Y201.999 E60.53345
G1 X146.750 Y113.499 E67.89225
G1 X131.999 Y113.499 E69.11880
G1 X131.999 Y121.999 E69.82558
G1 X117.999 Y121.999 E70.98968
G1 X117.999 Y113.499 E71.69646
G1 X104.250 Y113.499 E72.83970
G0 F6000 X103.750 Y112.999
G1 F1500 X103.750 Y202.499 E80.28165
G1 X118.499 Y202.499 E81.50804
G1 X118.499 Y193.999 E82.21481
G1 X131.499 Y193.999 E83.29577
G1 X131.499 Y202.499 E84.00255
G1 X147.250 Y202.499 E85.31225
G1 X147.250 Y112.999 E92.75420
G1 X131.499 Y112.999 E94.06390
G1 X131.499 Y121.499 E94.77068
G1 X118.499 Y121.499 E95.85163
G1 X118.499 Y112.999 E96.55841
G1 X103.750 Y112.999 E97.78480
G0 F6000 X103.250 Y112.499
G1 F1500 X103.250 Y202.999 E105.30990
G1 X118.999 Y202.999 E106.61944
G1 X118.999 Y194.499 E107.32622
G1 X130.999 Y194.499 E108.32402
G1 X130.999 Y202.999 E109.03080
G1 X147.750 Y202.999 E110.42365
G1 X147.750 Y112.499 E117.94875
G1 X130.999 Y112.499 E119.34161
G1 X130.999 Y120.999 E120.04838
G1 X118.999 Y120.999 E121.04619
G1 X118.999 Y112.499 E121.75297
G1 X103.250 Y112.499 E123.06250
G0 F6000 X102.750 Y111.999
G1 F1500 X102.750 Y203.499 E130.67076
G1 X119.499 Y203.499 E132.06344
G1 X119.499 Y194.999 E132.77022
G1 X130.499 Y194.999 E133.68487
G1 X130.499 Y203.499 E134.39165
G1 X148.250 Y203.499 E135.86765
G1 X148.250 Y111.999 E143.47591
G1 X130.499 Y111.999 E144.95191
G1 X130.499 Y120.499 E145.65869
G1 X119.499 Y120.499 E146.57334
G1 X119.499 Y111.999 E147.28012
G1 X102.750 Y111.999 E148.67280
G0 F6000 X102.250 Y111.499
G1 F1500 X102.250 Y203.999 E156.36421
G1 X119.999 Y203.999 E157.84005
G1 X119.999 Y195.499 E158.54682
G1 X129.999 Y195.499 E159.37833
G1 X129.999 Y203.999 E160.08510
G1 X148.750 Y203.999 E161.64426
G1 X148.750 Y111.499 E169.33566
G1 X129.999 Y111.499 E170.89481
G1 X129.999 Y119.999 E171.60159
G1 X119.999 Y119.999 E172.43310
G1 X119.999 Y111.499 E173.13987
G1 X102.250 Y111.499 E174.61571
G0 F6000 X101.750 Y110.999
G1 F1500 X101.750 Y204.499 E182.39027
G1 X120.499 Y204.499 E183.94925
G1 X120.499 Y195.999 E184.65603
G1 X129.499 Y195.999 E185.40438
G1 X129.499 Y204.499 E186.11116
G1 X149.250 Y204.499 E187.75346
G1 X149.250 Y110.999 E195.52802
G1 X129.499 Y110.999 E197.17032
G1 X129.499 Y119.499 E197.87710
G1 X120.499 Y119.499 E198.62545
G1 X120.499 Y110.999 E199.33223
G1 X101.750 Y110.999 E200.89122
G0 F6000 X54.750 Y107.249
G1 F1500 X265.250 Y107.249 E218.39436
G1 X265.250 Y210.750 E227.00050
G1 X266.480 Y210.750 E227.10278
G1 X266.749 Y210.729 E227.12522
G1 X266.749 Y212.749 E227.29318
G1 X264.749 Y212.750 E227.45948
G1 X264.749 Y212.749 E227.45956
G1 X53.250 Y212.749 E245.04578
G1 X53.250 Y210.749 E245.21208
G1 X54.750 Y210.749 E245.33680
G1 X54.750 Y107.249 E253.94286
G0 F6000 X54.250 Y106.749
G1 F1500 X265.750 Y106.749 E271.52916
G1 X265.750 Y210.250 E280.13530
G1 X266.454 Y210.250 E280.19384
G1 X267.249 Y210.189 E280.26014
G1 X267.249 Y213.249 E280.51458
G1 X264.249 Y213.251 E280.76403
G1 X264.249 Y213.249 E280.76420
G1 X52.750 Y213.249 E298.35041
G1 X52.750 Y210.249 E298.59986
G1 X54.250 Y210.249 E298.72459
G1 X54.250 Y106.749 E307.33065
G0 F6000 X53.750 Y106.249
G1 F1500 X266.250 Y106.249 E325.00009
G1 X266.250 Y209.750 E333.60624
G1 X266.442 Y209.750 E333.62220
G1 X267.749 Y209.649 E333.73120
G1 X267.749 Y213.748 E334.07203
G1 X263.749 Y213.751 E334.40464
G1 X263.749 Y213.749 E334.40480
G1 X52.250 Y213.749 E351.99102
G1 X52.250 Y209.749 E352.32362
G1 X53.750 Y209.749 E352.44834
G1 X53.750 Y106.249 E361.05440
G0 F6000 X53.250 Y105.749
G1 F1500 X266.750 Y105.749 E378.80700
G1 X266.750 Y209.224 E387.41098
G1 X268.249 Y209.109 E387.53599
G1 X268.249 Y214.248 E387.96330
G1 X263.249 Y214.251 E388.37905
G1 X263.249 Y214.249 E388.37922
G1 X51.750 Y214.249 E405.96543
G1 X51.750 Y209.249 E406.38118
G1 X53.250 Y209.249 E406.50591
G1 X53.250 Y105.749 E415.11197
G0 F6000 X52.750 Y105.249
G1 F1500 X267.250 Y105.249 E432.94772
G1 X267.250 Y208.685 E441.54845
G1 X268.749 Y208.569 E441.67347
G1 X268.749 Y214.748 E442.18725
G1 X262.749 Y214.752 E442.68616
G1 X262.749 Y214.749 E442.68641
G1 X51.250 Y214.749 E460.27262
G1 X51.250 Y208.749 E460.77152
G1 X52.750 Y208.749 E460.89625
G1 X52.750 Y105.249 E469.50231
G0 F6000 X52.250 Y104.749
G1 F1500 X267.750 Y104.749 E487.42120
G1 X267.750 Y208.144 E496.01853
G1 X269.249 Y208.029 E496.14354
G1 X269.249 Y215.247 E496.74372
G1 X262.249 Y215.252 E497.32577
G1 X262.249 Y215.249 E497.32602
G1 X50.750 Y215.249 E514.91224
G1 X50.750 Y208.249 E515.49429
G1 X52.250 Y208.249 E515.61901
G1 X52.250 Y104.749 E524.22507
G0 F6000 X51.750 Y104.249
G1 F1500 X268.250 Y104.249 E542.22712
G1 X268.250 Y207.605 E550.82121
G1 X269.749 Y207.489 E550.94622
G1 X269.749 Y215.747 E551.63288
G1 X261.749 Y215.752 E552.29808
G1 X261.749 Y215.749 E552.29833
G1 X50.250 Y215.749 E569.88454
G1 X50.250 Y207.749 E570.54975
G1 X51.750 Y207.749 E570.67447
G1 X51.750 Y104.249 E579.28053
G0 F6000 X51.250 Y103.749
G1 F1500 X268.750 Y103.749 E597.36573
G1 X268.750 Y207.064 E605.95641
G1 X270.249 Y206.949 E606.08142
G1 X270.249 Y216.247 E606.85455
G1 X261.249 Y216.253 E607.60290
G1 X261.249 Y216.249 E607.60323
G1 X49.750 Y216.249 E625.18945
G1 X49.750 Y207.249 E625.93780
G1 X51.250 Y207.249 E626.06253
G1 X51.250 Y103.749 E634.66859
G1 F2700 E630.66859
G0 F6000 X55.750 Y108.249
;TYPE:WALL-INNER
G1 F2700 E634.66859
G1 F1500 X264.250 Y108.249 E652.00543
G1 X264.250 Y211.749 E660.61149
G1 X55.750 Y211.749 E677.94834
G1 X55.750 Y108.249 E686.55440
G0 F6000 X100.750 Y109.999
G1 F1500 X100.750 Y205.499 E694.49525
G1 X121.499 Y205.499 E696.22054
G1 X121.499 Y196.999 E696.92732
G1 X128.499 Y196.999 E697.50937
G1 X128.499 Y205.499 E698.21615
G1 X150.250 Y205.499 E700.02475
G1 X150.250 Y109.999 E707.96561
G1 X100.750 Y109.999 E712.08155
G0 F6000 X100.859 Y205.390
G0 X121.390 Y205.390
G0 X121.390 Y196.890
G0 X124.197 Y197.095
G1 F1500 X123.585 Y197.311 E712.13552
G1 X123.056 Y197.625 E712.18667
G1 X122.606 Y198.021 E712.23651
G1 X122.338 Y198.345 E712.27147
G1 X122.112 Y198.700 E712.30647
G1 X121.880 Y199.240 E712.35533
G1 X121.774 Y199.646 E712.39023
G1 X121.724 Y200.040 E712.42325
G1 X121.717 Y200.279 E712.44313
G1 X121.772 Y200.866 E712.49215
G1 X121.944 Y201.454 E712.54310
G1 X122.216 Y201.989 E712.59300
G1 X122.463 Y202.329 E712.62794
G1 X122.751 Y202.636 E712.66295
G1 X123.216 Y202.996 E712.71184
G1 X123.584 Y203.198 E712.74675
G1 X123.974 Y203.353 E712.78165
G1 X124.549 Y203.482 E712.83065
G1 X124.990 Y203.509 E712.86738
G1 X125.727 Y203.420 E712.92911
G1 X126.176 Y203.277 E712.96829
G1 X126.701 Y203.008 E713.01734
G1 X127.041 Y202.762 E713.05224
G1 X127.348 Y202.474 E713.08724
G1 X127.708 Y202.009 E713.13614
G1 X127.910 Y201.641 E713.17104
G1 X128.065 Y201.250 E713.20602
G1 X128.193 Y200.676 E713.25492
G1 X128.221 Y200.235 E713.29166
G1 X128.132 Y199.497 E713.35347
G1 X127.989 Y199.049 E713.39257
G1 X127.715 Y198.513 E713.44263
G1 X127.340 Y198.029 E713.49354
G1 X126.881 Y197.625 E713.54438
G1 X126.344 Y197.307 E713.59628
G1 X125.629 Y197.073 E713.65883
G1 X125.188 Y197.013 E713.69584
G1 X124.934 Y197.005 E713.71697
G1 X124.197 Y197.095 E713.77871
G0 F6000 X124.312 Y197.584
;TYPE:WALL-OUTER
G1 F1500 X123.798 Y197.766 E713.82405
G1 X123.351 Y198.031 E713.86725
G1 X122.966 Y198.370 E713.90991
G1 X122.743 Y198.640 E713.93903
G1 X122.555 Y198.935 E713.96811
G1 X122.354 Y199.403 E714.01047
G1 X122.266 Y199.741 E714.03951
G1 X122.223 Y200.079 E714.06784
G1 X122.218 Y200.264 E714.08323
G1 X122.265 Y200.772 E714.12565
G1 X122.411 Y201.269 E714.16872
G1 X122.643 Y201.727 E714.21141
G1 X122.849 Y202.010 E714.24052
G1 X123.088 Y202.265 E714.26958
G1 X123.491 Y202.577 E714.31195
G1 X123.797 Y202.745 E714.34098
G1 X124.122 Y202.874 E714.37006
G1 X124.620 Y202.985 E714.41248
G1 X124.975 Y203.007 E714.44206
G1 X125.620 Y202.929 E714.49608
G1 X125.985 Y202.813 E714.52792
G1 X126.439 Y202.581 E714.57032
G1 X126.722 Y202.376 E714.59937
G1 X126.977 Y202.137 E714.62844
G1 X127.289 Y201.734 E714.67081
G1 X127.457 Y201.428 E714.69984
G1 X127.586 Y201.103 E714.72891
G1 X127.696 Y200.605 E714.77132
G1 X127.719 Y200.249 E714.80099
G1 X127.641 Y199.604 E714.85501
G1 X127.525 Y199.240 E714.88677
G1 X127.291 Y198.782 E714.92954
G1 X126.974 Y198.373 E714.97257
G1 X126.586 Y198.031 E715.01557
G1 X126.137 Y197.765 E715.05897
G1 X125.516 Y197.562 E715.11329
G1 X125.146 Y197.512 E715.14434
G1 X124.957 Y197.506 E715.16006
G1 X124.312 Y197.584 E715.21408
G0 F6000 X124.196 Y197.254
G0 X121.349 Y196.759
G0 X120.999 Y196.499
G1 F1500 X128.999 Y196.499 E715.87929
G1 X128.999 Y204.999 E716.58606
G1 X149.750 Y204.999 E718.31152
G1 X149.750 Y110.499 E726.16922
G1 X101.250 Y110.499 E730.20202
G1 X101.250 Y204.999 E738.05972
G1 X120.999 Y204.999 E739.70186
G1 X120.999 Y196.499 E740.40864
G0 F6000 X121.349 Y196.759
G0 X121.390 Y205.390
G0 X100.859 Y205.390
G0 X55.250 Y211.599
G0 X55.250 Y211.249
G1 F1500 X55.250 Y107.749 E749.01470
G1 X264.750 Y107.749 E766.43469
G1 X264.750 Y211.250 E775.04084
G1 X266.249 Y211.250 E775.16548
G1 X266.249 Y212.249 E775.24854
G1 X265.249 Y212.250 E775.33170
G1 X53.750 Y212.249 E792.91791
G1 X53.750 Y211.249 E793.00106
G1 X55.250 Y211.249 E793.12578
G0 F6000 X55.250 Y211.599
G0 X121.390 Y205.390
G0 X121.443 Y198.283
G0 X124.938 Y197.056
G0 X126.553 Y197.256
;TYPE:FILL
G1 F1500 X126.764 Y197.468 E793.15066
G0 F6000 X127.323 Y197.913
G1 F1500 X128.163 Y197.072 E793.24949
G0 F6000 X127.789 Y198.493
G1 F1500 X128.424 Y199.127 E793.32410
G0 F6000 X128.424 Y198.781
;TYPE:SKIN
G1 F1500 X126.716 Y197.073 E793.52495
G0 F6000 X127.423 Y197.073
G1 F1500 X128.424 Y198.074 E793.64266
G0 F6000 X128.424 Y197.366
G1 F1500 X128.130 Y197.073 E793.67718
G0 F6000 X123.390 Y197.283
G1 F1500 X123.082 Y197.329 E793.70177
G1 X122.473 Y197.073 E793.75671
G0 F6000 X121.766 Y197.073
G1 F1500 X122.608 Y197.915 E793.85572
G0 F6000 X122.282 Y198.296
G1 F1500 X121.573 Y197.587 E793.93909
G0 F6000 X121.573 Y198.294
G1 F1500 X122.014 Y198.735 E793.99095
G0 F6000 X121.574 Y201.830
G1 F1500 X131.416 Y211.673 E795.14835
G0 F6000 X130.709 Y211.673
G1 F1500 X121.574 Y202.538 E796.22256
G0 F6000 X121.574 Y203.245
G1 F1500 X130.002 Y211.673 E797.21363
G0 F6000 X129.295 Y211.673
G1 F1500 X121.574 Y203.952 E798.12156
G0 F6000 X121.574 Y204.659
G1 F1500 X128.588 Y211.673 E798.94635
G0 F6000 X127.880 Y211.673
G1 F1500 X121.574 Y205.366 E799.68795
G0 F6000 X121.073 Y205.572
G1 F1500 X127.173 Y211.673 E800.40532
G0 F6000 X126.466 Y211.673
G1 F1500 X120.366 Y205.572 E801.12269
G0 F6000 X119.659 Y205.572
G1 F1500 X125.759 Y211.673 E801.84006
G0 F6000 X125.052 Y211.673
G1 F1500 X118.952 Y205.572 E802.55743
G0 F6000 X118.245 Y205.572
G1 F1500 X124.345 Y211.673 E803.27481
G0 F6000 X123.638 Y211.673
G1 F1500 X117.538 Y205.572 E803.99218
G0 F6000 X116.831 Y205.572
G1 F1500 X122.931 Y211.673 E804.70955
G0 F6000 X122.224 Y211.673
G1 F1500 X116.123 Y205.572 E805.42698
G0 F6000 X115.416 Y205.572
G1 F1500 X121.517 Y211.673 E806.14441
G0 F6000 X120.809 Y211.673
G1 F1500 X114.709 Y205.572 E806.86178
G0 F6000 X114.002 Y205.572
G1 F1500 X120.102 Y211.673 E807.57916
G0 F6000 X123.823 Y203.373
G1 F1500 X132.123 Y211.673 E808.55517
G0 F6000 X132.830 Y211.673
G1 F1500 X124.725 Y203.567 E809.50832
G0 F6000 X125.399 Y203.534
G1 F1500 X133.537 Y211.673 E810.46534
G0 F6000 X134.244 Y211.673
G1 F1500 X125.987 Y203.415 E811.43636
G0 F6000 X126.482 Y203.203
G1 F1500 X128.424 Y205.145 E811.66472
G0 F6000 X128.852 Y205.573
G1 F1500 X134.952 Y211.673 E812.38204
G0 F6000 X135.659 Y211.673
G1 F1500 X129.559 Y205.573 E813.09935
G0 F6000 X130.266 Y205.573
G1 F1500 X136.366 Y211.673 E813.81666
G0 F6000 X137.073 Y211.673
G1 F1500 X130.973 Y205.573 E814.53398
G0 F6000 X131.680 Y205.573
G1 F1500 X137.780 Y211.673 E815.25129
G0 F6000 X138.487 Y211.673
G1 F1500 X132.388 Y205.573 E815.96855
G0 F6000 X133.095 Y205.573
G1 F1500 X139.194 Y211.673 E816.68580
G0 F6000 X139.901 Y211.673
G1 F1500 X133.802 Y205.573 E817.40305
G0 F6000 X134.509 Y205.573
G1 F1500 X140.608 Y211.673 E818.12031
G0 F6000 X141.315 Y211.673
G1 F1500 X135.216 Y205.573 E818.83756
G0 F6000 X135.923 Y205.573
G1 F1500 X142.023 Y211.673 E819.55488
G0 F6000 X142.730 Y211.673
G1 F1500 X136.630 Y205.573 E820.27219
G0 F6000 X137.337 Y205.573
G1 F1500 X143.437 Y211.673 E820.98950
G0 F6000 X144.144 Y211.673
G1 F1500 X138.044 Y205.573 E821.70682
G0 F6000 X138.752 Y205.573
G1 F1500 X144.851 Y211.673 E822.42407
G0 F6000 X145.558 Y211.673
G1 F1500 X139.459 Y205.573 E823.14132
G0 F6000 X128.608 Y205.390
G0 X128.424 Y204.438
G1 F1500 X126.924 Y202.938 E823.31771
G0 F6000 X127.308 Y202.615
G1 F1500 X128.424 Y203.730 E823.44889
G0 F6000 X128.424 Y203.023
G1 F1500 X127.631 Y202.231 E823.54208
G0 F6000 X127.908 Y201.801
G1 F1500 X128.424 Y201.962 E823.60276
G1 X128.122 Y201.308 E823.66265
G0 F6000 X128.608 Y205.390
G0 X140.166 Y205.573
G1 F1500 X146.265 Y211.673 E824.37991
G0 F6000 X146.972 Y211.673
G1 F1500 X140.873 Y205.573 E825.09716
G0 F6000 X141.580 Y205.573
G1 F1500 X147.679 Y211.673 E825.81442
G0 F6000 X148.387 Y211.673
G1 F1500 X142.287 Y205.573 E826.53173
G0 F6000 X142.994 Y205.573
G1 F1500 X149.094 Y211.673 E827.24904
G0 F6000 X149.801 Y211.673
G1 F1500 X143.701 Y205.573 E827.96636
G0 F6000 X144.408 Y205.573
G1 F1500 X150.508 Y211.673 E828.68367
G0 F6000 X151.215 Y211.673
G1 F1500 X145.115 Y205.573 E829.40098
G0 F6000 X145.823 Y205.573
G1 F1500 X151.922 Y211.673 E830.11824
G0 F6000 X152.629 Y211.673
G1 F1500 X146.530 Y205.573 E830.83549
G0 F6000 X147.237 Y205.573
G1 F1500 X153.336 Y211.673 E831.55275
G0 F6000 X154.043 Y211.673
G1 F1500 X147.944 Y205.573 E832.27000
G0 F6000 X148.651 Y205.573
G1 F1500 X154.751 Y211.673 E832.98732
G0 F6000 X155.458 Y211.673
G1 F1500 X149.358 Y205.573 E833.70463
G0 F6000 X150.065 Y205.573
G1 F1500 X156.165 Y211.673 E834.42194
G0 F6000 X156.872 Y211.673
G1 F1500 X150.324 Y205.125 E835.19194
G0 F6000 X150.324 Y204.418
G1 F1500 X157.579 Y211.673 E836.04507
G0 F6000 X158.286 Y211.673
G1 F1500 X150.324 Y203.711 E836.98134
G0 F6000 X150.324 Y203.003
G1 F1500 X158.993 Y211.673 E838.00081
G0 F6000 X159.700 Y211.673
G1 F1500 X150.324 Y202.296 E839.10341
G0 F6000 X150.324 Y201.589
G1 F1500 X160.408 Y211.673 E840.28921
G0 F6000 X161.115 Y211.673
G1 F1500 X150.324 Y200.882 E841.55815
G0 F6000 X150.324 Y200.175
G1 F1500 X161.822 Y211.673 E842.91023
G0 F6000 X162.529 Y211.673
G1 F1500 X150.324 Y199.468 E844.34544
G0 F6000 X150.324 Y198.761
G1 F1500 X163.237 Y211.673 E845.86385
G0 F6000 X163.944 Y211.673
G1 F1500 X150.324 Y198.054 E847.46540
G0 F6000 X150.324 Y197.347
G1 F1500 X164.651 Y211.673 E849.15009
G0 F6000 X165.358 Y211.673
G1 F1500 X150.324 Y196.640 E850.91791
G0 F6000 X150.324 Y195.932
G1 F1500 X166.065 Y211.673 E852.76893
G0 F6000 X166.772 Y211.673
G1 F1500 X150.324 Y195.225 E854.70309
G0 F6000 X150.324 Y194.518
