;Generated with Cura_SteamEngine 15.01
; Default start code
G28 ; Home extruder
;  AUTONIVELADO
G1 Z15 F100
M107 ; Turn off fan
G90 ; Absolute positioning
M82 ; Extruder in absolute mode
M190 S55
; Activate all used extruder
M104 T0 S205
G92 E0 ; Reset extruder position
; Wait for all used extruders to reach temperature
M109 T0 S205
;Layer count: 174
;LAYER:0
M106 S127
G0 F6000 X49.749 Y103.750 Z0.400
G0 X51.249 Y103.750
;TYPE:SKIRT
G1 F1500 X51.249 Y103.346 E0.03359
G1 X72.849 Y103.346 E1.82964
G1 X72.849 Y172.277 E7.56128
G1 X247.049 Y172.277 E22.04606
G1 X247.049 Y103.346 E27.77770
G1 X268.750 Y103.346 E29.58215
G1 X268.750 Y103.746 E29.61541
G1 X270.250 Y103.746 E29.74013
G1 X270.250 Y216.252 E39.09504
G1 X270.249 Y216.252 E39.09513
G1 X270.249 Y216.253 E39.09521
G1 X49.749 Y216.253 E57.42986
G1 X49.749 Y103.750 E66.78452
G1 X51.249 Y103.750 E66.90925
G0 F6000 X51.749 Y104.250
G1 F1500 X51.749 Y103.846 E66.94284
G1 X72.349 Y103.846 E68.65574
G1 X72.349 Y172.777 E74.38737
G1 X247.549 Y172.777 E88.95531
G1 X247.549 Y103.846 E94.68695
G1 X268.250 Y103.846 E96.40824
G1 X268.250 Y104.246 E96.44150
G1 X269.750 Y104.246 E96.56623
G1 X269.750 Y215.752 E105.83799
G1 X269.749 Y215.752 E105.83807
G1 X269.749 Y215.753 E105.83816
G1 X50.249 Y215.753 E124.08966
G1 X50.249 Y104.250 E133.36117
G1 X51.749 Y104.250 E133.48589
G0 F6000 X52.249 Y104.750
G1 F1500 X52.249 Y104.346 E133.51949
G1 X71.849 Y104.346 E135.14923
G1 X71.849 Y173.277 E140.88087
G1 X248.049 Y173.277 E155.53196
G1 X248.049 Y104.346 E161.26359
G1 X267.750 Y104.346 E162.90174
G1 X267.750 Y104.746 E162.93500
G1 X269.250 Y104.746 E163.05972
G1 X269.250 Y215.252 E172.24834
G1 X269.249 Y215.252 E172.24842
G1 X269.249 Y215.253 E172.24850
G1 X50.749 Y215.253 E190.41685
G1 X50.749 Y104.750 E199.60521
G1 X52.249 Y104.750 E199.72994
G0 F6000 X52.749 Y105.250
G1 F1500 X52.749 Y104.846 E199.76353
G1 X71.349 Y104.846 E201.31013
G1 X71.349 Y173.777 E207.04176
G1 X248.549 Y173.777 E221.77600
G1 X248.549 Y104.846 E227.50764
G1 X267.250 Y104.846 E229.06263
G1 X267.250 Y105.246 E229.09589
G1 X268.750 Y105.246 E229.22062
G1 X268.750 Y214.752 E238.32608
G1 X268.749 Y214.752 E238.32616
G1 X268.749 Y214.753 E238.32625
G1 X51.249 Y214.753 E256.41144
G1 X51.249 Y105.250 E265.51666
G1 X52.749 Y105.250 E265.64138
G0 F6000 X53.249 Y105.750
G1 F1500 X53.249 Y105.346 E265.67497
G1 X70.849 Y105.346 E267.13842
G1 X70.849 Y174.277 E272.87006
G1 X249.049 Y174.277 E287.68745
G1 X249.049 Y105.346 E293.41908
G1 X266.750 Y105.346 E294.89093
G1 X266.750 Y105.746 E294.92419
G1 X268.250 Y105.746 E295.04891
G1 X268.250 Y214.252 E304.07122
G1 X268.249 Y214.252 E304.07131
G1 X268.249 Y214.253 E304.07139
G1 X51.749 Y214.253 E322.07344
G1 X51.749 Y105.750 E331.09550
G1 X53.249 Y105.750 E331.22022
G0 F6000 X53.749 Y106.250
G1 F1500 X53.749 Y105.846 E331.25382
G1 X70.349 Y105.846 E332.63411
G1 X70.349 Y174.777 E338.36575
G1 X249.549 Y174.777 E353.26629
G1 X249.549 Y105.846 E358.99792
G1 X266.250 Y105.846 E360.38662
G1 X266.250 Y106.246 E360.41988
G1 X267.750 Y106.246 E360.54460
G1 X267.750 Y213.752 E369.48376
G1 X267.749 Y213.752 E369.48385
G1 X267.749 Y213.753 E369.48393
G1 X52.249 Y213.753 E387.40283
G1 X52.249 Y106.250 E396.34174
G1 X53.749 Y106.250 E396.46646
G0 F6000 X54.249 Y106.750
G1 F1500 X54.249 Y106.346 E396.50006
G1 X69.849 Y106.346 E397.79720
G1 X69.849 Y175.277 E403.52884
G1 X250.049 Y175.277 E418.51253
G1 X250.049 Y106.346 E424.24416
G1 X265.750 Y106.346 E425.54971
G1 X265.750 Y106.746 E425.58297
G1 X267.250 Y106.746 E425.70769
G1 X267.250 Y213.252 E434.56370
G1 X267.249 Y213.252 E434.56379
G1 X267.249 Y213.253 E434.56387
G1 X52.749 Y213.253 E452.39962
G1 X52.749 Y106.750 E461.25538
G1 X54.249 Y106.750 E461.38010
G0 F6000 X54.749 Y107.250
G1 F1500 X54.749 Y106.846 E461.41370
G1 X69.349 Y106.846 E462.62769
G1 X69.349 Y175.777 E468.35933
G1 X250.549 Y175.777 E483.42617
G1 X250.549 Y106.846 E489.15780
G1 X265.250 Y106.846 E490.38020
G1 X265.250 Y107.246 E490.41346
G1 X266.750 Y107.246 E490.53818
G1 X266.750 Y212.752 E499.31104
G1 X266.749 Y212.752 E499.31113
G1 X266.749 Y212.753 E499.31121
G1 X53.249 Y212.753 E517.06381
G1 X53.249 Y107.250 E525.83642
G1 X54.749 Y107.250 E525.96114
G0 F6000 X157.599 Y192.777
G1 F1500 X157.324 Y193.115 E525.99737
G1 X157.024 Y193.625 E526.04657
G1 X156.942 Y193.819 E526.06409
G1 X156.815 Y194.224 E526.09938
G1 X156.745 Y194.592 E526.13053
G1 X156.720 Y195.006 E526.16501
G1 X156.748 Y195.431 E526.20043
G1 X156.880 Y196.008 E526.24965
G1 X157.042 Y196.411 E526.28576
G1 X157.137 Y196.592 E526.30276
G1 X157.358 Y196.933 E526.33655
G1 X157.747 Y197.370 E526.38519
G1 X158.225 Y197.742 E526.43556
G1 X158.778 Y198.023 E526.48714
G1 X159.187 Y198.153 E526.52282
G1 X159.566 Y198.224 E526.55488
G1 X159.765 Y198.243 E526.57151
G1 X159.970 Y198.250 E526.58856
G1 X160.399 Y198.220 E526.62432
G1 X160.972 Y198.089 E526.67319
G1 X161.536 Y197.845 E526.72429
G1 X162.038 Y197.505 E526.77471
G1 X162.477 Y197.065 E526.82639
G1 X162.728 Y196.714 E526.86227
G1 X162.919 Y196.359 E526.89579
G1 X163.000 Y196.165 E526.91327
G1 X163.161 Y195.607 E526.96156
G1 X163.212 Y195.202 E526.99550
G1 X163.219 Y194.992 E527.01297
G1 X163.218 Y194.972 E527.01464
G1 X163.189 Y194.569 E527.04823
G1 X163.057 Y193.992 E527.09745
G1 X162.817 Y193.436 E527.14781
G1 X162.579 Y193.067 E527.18432
G1 X162.192 Y192.630 E527.23285
G1 X161.856 Y192.357 E527.26885
G1 X161.349 Y192.059 E527.31775
G1 X160.777 Y191.853 E527.36830
G1 X160.165 Y191.757 E527.41981
G1 X159.968 Y191.750 E527.43621
G1 X159.537 Y191.779 E527.47212
G1 X158.960 Y191.911 E527.52134
G1 X158.549 Y192.076 E527.55817
G1 X158.385 Y192.163 E527.57360
G1 X158.035 Y192.389 E527.60825
G1 X157.599 Y192.777 E527.65678
G0 F6000 X156.874 Y192.083
;TYPE:WALL-INNER
G1 F1500 X156.500 Y192.542 E527.70601
G1 X156.130 Y193.173 E527.76683
G1 X155.998 Y193.485 E527.79500
G1 X155.843 Y193.980 E527.83813
G1 X155.750 Y194.467 E527.87936
G1 X155.717 Y195.002 E527.92393
G1 X155.757 Y195.581 E527.97219
G1 X155.922 Y196.306 E528.03401
G1 X156.135 Y196.836 E528.08151
G1 X156.271 Y197.095 E528.10583
G1 X156.560 Y197.540 E528.14995
G1 X157.058 Y198.101 E528.21233
G1 X157.689 Y198.591 E528.27876
G1 X158.395 Y198.950 E528.34461
G1 X158.949 Y199.126 E528.39295
G1 X159.425 Y199.215 E528.43321
G1 X159.701 Y199.242 E528.45627
G1 X159.983 Y199.251 E528.47973
G1 X160.551 Y199.211 E528.52708
G1 X161.284 Y199.044 E528.58959
G1 X162.017 Y198.727 E528.65599
G1 X162.680 Y198.277 E528.72262
G1 X163.239 Y197.717 E528.78842
G1 X163.579 Y197.242 E528.83699
G1 X163.827 Y196.781 E528.88051
G1 X163.943 Y196.505 E528.90541
G1 X164.144 Y195.808 E528.96573
G1 X164.211 Y195.279 E529.01006
G1 X164.219 Y195.001 E529.03319
G1 X164.217 Y194.927 E529.03934
G1 X164.180 Y194.416 E529.08195
G1 X164.013 Y193.684 E529.14438
G1 X163.700 Y192.959 E529.21004
G1 X163.378 Y192.462 E529.25928
G1 X162.886 Y191.905 E529.32107
G1 X162.426 Y191.531 E529.37037
G1 X161.779 Y191.151 E529.43276
G1 X161.026 Y190.880 E529.49931
G1 X160.259 Y190.759 E529.56387
G1 X159.956 Y190.749 E529.58908
G1 X159.387 Y190.788 E529.63650
G1 X158.662 Y190.953 E529.69833
G1 X158.132 Y191.166 E529.74582
G1 X157.874 Y191.302 E529.77007
G1 X157.428 Y191.591 E529.81426
G1 X156.874 Y192.083 E529.87587
G0 F6000 X54.249 Y176.777
G1 F1500 X265.750 Y176.777 E547.46225
G1 X265.750 Y211.752 E550.37044
G1 X54.249 Y211.753 E567.95681
G1 X54.249 Y176.777 E570.86508
G0 F6000 X54.749 Y176.277
;TYPE:WALL-OUTER
G1 F1500 X265.250 Y176.277 E588.36831
G1 X265.250 Y107.746 E594.06669
G1 X266.250 Y107.746 E594.14984
G1 X266.250 Y212.252 E602.83955
G1 X53.749 Y212.253 E620.50908
G1 X53.749 Y107.750 E629.19853
G1 X54.749 Y107.750 E629.28169
G1 X54.749 Y176.277 E634.97973
G0 F6000 X54.399 Y176.277
G0 X54.358 Y176.668
G0 X155.899 Y194.508
G0 X156.247 Y194.530
G1 F1500 X156.218 Y195.001 E635.01897
G1 X156.253 Y195.508 E635.06122
G1 X156.401 Y196.156 E635.11649
G1 X156.590 Y196.626 E635.15862
G1 X156.959 Y197.236 E635.21789
G1 X157.401 Y197.734 E635.27326
G1 X157.958 Y198.167 E635.33192
G1 X158.585 Y198.486 E635.39042
G1 X159.071 Y198.640 E635.43281
G1 X159.495 Y198.720 E635.46869
G1 X159.733 Y198.743 E635.48857
G1 X159.974 Y198.750 E635.50862
G1 X160.478 Y198.715 E635.55063
G1 X161.128 Y198.567 E635.60606
G1 X161.776 Y198.287 E635.66475
G1 X162.360 Y197.890 E635.72347
G1 X162.856 Y197.393 E635.78186
G1 X163.154 Y196.977 E635.82441
G1 X163.375 Y196.566 E635.86321
G1 X163.470 Y196.338 E635.88375
G1 X163.653 Y195.707 E635.93838
G1 X163.712 Y195.240 E635.97752
G1 X163.719 Y195.000 E635.99748
G1 X163.718 Y194.952 E636.00147
G1 X163.684 Y194.490 E636.03999
G1 X163.536 Y193.840 E636.09542
G1 X163.257 Y193.196 E636.15378
G1 X162.979 Y192.765 E636.19643
G1 X162.539 Y192.267 E636.25168
G1 X162.140 Y191.943 E636.29442
G1 X161.566 Y191.606 E636.34977
G1 X160.901 Y191.367 E636.40853
G1 X160.212 Y191.258 E636.46653
G1 X159.965 Y191.250 E636.48708
G1 X159.460 Y191.284 E636.52916
G1 X158.812 Y191.432 E636.58443
G1 X158.342 Y191.621 E636.62655
G1 X157.732 Y191.990 E636.68583
G1 X157.236 Y192.430 E636.74097
G1 X156.912 Y192.828 E636.78364
G1 X156.578 Y193.398 E636.83857
G1 X156.468 Y193.658 E636.86205
G1 X156.329 Y194.102 E636.90073
G1 X156.247 Y194.530 E636.93697
G0 F6000 X155.714 Y194.252
;TYPE:SKIN
G1 F1500 X138.314 Y176.851 E638.98313
G0 F6000 X137.607 Y176.851
G1 F1500 X155.649 Y194.893 E641.10473
G0 F6000 X155.696 Y195.647
G1 F1500 X136.900 Y176.851 E643.31500
G0 F6000 X136.193 Y176.851
G1 F1500 X155.971 Y196.630 E645.64080
G0 F6000 X155.856 Y193.686
G1 F1500 X139.021 Y176.851 E647.62047
G0 F6000 X139.728 Y176.851
G1 F1500 X156.049 Y193.172 E649.53969
G0 F6000 X156.307 Y192.723
G1 F1500 X140.435 Y176.851 E651.40612
G0 F6000 X141.142 Y176.851
G1 F1500 X156.596 Y192.305 E653.22339
G0 F6000 X156.929 Y191.931
G1 F1500 X141.849 Y176.851 E654.99668
G0 F6000 X142.556 Y176.851
G1 F1500 X157.303 Y191.598 E656.73082
G0 F6000 X157.721 Y191.309
G1 F1500 X143.264 Y176.851 E658.43091
G0 F6000 X143.971 Y176.851
G1 F1500 X158.181 Y191.062 E660.10195
G0 F6000 X158.694 Y190.867
G1 F1500 X144.678 Y176.851 E661.75013
G0 F6000 X145.385 Y176.851
G1 F1500 X159.270 Y190.737 E663.38295
G0 F6000 X159.917 Y190.676
G1 F1500 X146.092 Y176.851 E665.00867
G0 F6000 X146.799 Y176.851
G1 F1500 X160.699 Y190.751 E666.64320
G0 F6000 X161.695 Y191.040
G1 F1500 X147.506 Y176.851 E668.31172
G0 F6000 X148.213 Y176.851
G1 F1500 X183.038 Y211.676 E672.40687
G0 F6000 X182.331 Y211.676
G1 F1500 X163.908 Y193.253 E674.57328
G0 F6000 X164.224 Y194.276
G1 F1500 X181.624 Y211.676 E676.61938
G0 F6000 X180.917 Y211.676
G1 F1500 X164.292 Y195.051 E678.57436
G0 F6000 X164.232 Y195.698
G1 F1500 X180.210 Y211.676 E680.45325
G0 F6000 X183.745 Y211.676
G1 F1500 X148.920 Y176.851 E684.54840
G0 F6000 X149.628 Y176.851
G1 F1500 X184.453 Y211.676 E688.64355
G0 F6000 X185.160 Y211.676
G1 F1500 X150.335 Y176.851 E692.73871
G0 F6000 X151.042 Y176.851
G1 F1500 X185.867 Y211.676 E696.83386
G0 F6000 X186.574 Y211.676
G1 F1500 X151.749 Y176.851 E700.92901
G0 F6000 X152.456 Y176.851
G1 F1500 X187.281 Y211.676 E705.02416
G0 F6000 X187.988 Y211.676
G1 F1500 X153.163 Y176.851 E709.11932
G0 F6000 X153.870 Y176.851
G1 F1500 X188.695 Y211.676 E713.21447
G0 F6000 X189.402 Y211.676
G1 F1500 X154.577 Y176.851 E717.30962
G0 F6000 X155.284 Y176.851
G1 F1500 X190.109 Y211.676 E721.40478
G0 F6000 X190.817 Y211.676
G1 F1500 X155.991 Y176.851 E725.49999
G0 F6000 X156.699 Y176.851
G1 F1500 X191.524 Y211.676 E729.59514
G0 F6000 X192.231 Y211.676
G1 F1500 X157.406 Y176.851 E733.69029
G0 F6000 X158.113 Y176.851
G1 F1500 X192.938 Y211.676 E737.78545
G0 F6000 X193.645 Y211.676
G1 F1500 X158.820 Y176.851 E741.88060
G0 F6000 X159.527 Y176.851
G1 F1500 X194.352 Y211.676 E745.97575
G0 F6000 X195.059 Y211.676
G1 F1500 X160.234 Y176.851 E750.07091
G0 F6000 X160.941 Y176.851
G1 F1500 X195.766 Y211.676 E754.16606
G0 F6000 X196.473 Y211.676
G1 F1500 X161.648 Y176.851 E758.26121
G0 F6000 X162.355 Y176.851
G1 F1500 X197.180 Y211.676 E762.35637
G0 F6000 X197.888 Y211.676
G1 F1500 X163.063 Y176.851 E766.45152
G0 F6000 X163.770 Y176.851
G1 F1500 X198.595 Y211.676 E770.54667
G0 F6000 X199.302 Y211.676
G1 F1500 X164.477 Y176.851 E774.64183
G0 F6000 X165.184 Y176.851
G1 F1500 X200.009 Y211.676 E778.73698
G0 F6000 X200.716 Y211.676
G1 F1500 X165.891 Y176.851 E782.83213
G0 F6000 X166.598 Y176.851
G1 F1500 X201.423 Y211.676 E786.92728
G0 F6000 X202.130 Y211.676
G1 F1500 X167.305 Y176.851 E791.02244
G0 F6000 X168.012 Y176.851
G1 F1500 X202.837 Y211.676 E795.11759
G0 F6000 X203.544 Y211.676
G1 F1500 X168.719 Y176.851 E799.21274
G0 F6000 X169.427 Y176.851
G1 F1500 X204.252 Y211.676 E803.30790
G0 F6000 X204.959 Y211.676
G1 F1500 X170.134 Y176.851 E807.40305
G0 F6000 X170.841 Y176.851
G1 F1500 X205.666 Y211.676 E811.49820
G0 F6000 X206.373 Y211.676
G1 F1500 X171.548 Y176.851 E815.59336
G0 F6000 X172.255 Y176.851
G1 F1500 X207.080 Y211.676 E819.68851
G0 F6000 X207.787 Y211.676
G1 F1500 X172.962 Y176.851 E823.78366
G0 F6000 X173.669 Y176.851
G1 F1500 X208.494 Y211.676 E827.87882
G0 F6000 X209.201 Y211.676
G1 F1500 X174.376 Y176.851 E831.97397
G0 F6000 X175.083 Y176.851
G1 F1500 X209.908 Y211.676 E836.06912
G0 F6000 X210.615 Y211.676
G1 F1500 X175.790 Y176.851 E840.16427
G0 F6000 X176.498 Y176.851
G1 F1500 X211.323 Y211.676 E844.25943
G0 F6000 X212.030 Y211.676
G1 F1500 X177.205 Y176.851 E848.35458
G0 F6000 X177.912 Y176.851
G1 F1500 X212.737 Y211.676 E852.44973
G0 F6000 X213.444 Y211.676
G1 F1500 X178.619 Y176.851 E856.54489
G0 F6000 X179.326 Y176.851
G1 F1500 X214.151 Y211.676 E860.64004
G0 F6000 X214.858 Y211.676
G1 F1500 X180.033 Y176.851 E864.73519
G0 F6000 X180.740 Y176.851
G1 F1500 X215.565 Y211.676 E868.83035
G0 F6000 X216.272 Y211.676
G1 F1500 X181.447 Y176.851 E872.92550
G0 F6000 X182.154 Y176.851
G1 F1500 X216.979 Y211.676 E877.02065
G0 F6000 X217.687 Y211.676
G1 F1500 X182.862 Y176.851 E881.11581
G0 F6000 X183.569 Y176.851
G1 F1500 X218.394 Y211.676 E885.21096
G0 F6000 X219.101 Y211.676
G1 F1500 X184.276 Y176.851 E889.30611
G0 F6000 X184.983 Y176.851
G1 F1500 X219.808 Y211.676 E893.40126
G0 F6000 X220.515 Y211.676
G1 F1500 X185.690 Y176.851 E897.49642
G0 F6000 X186.397 Y176.851
G1 F1500 X221.222 Y211.676 E901.59157
G0 F6000 X221.929 Y211.676
G1 F1500 X187.104 Y176.851 E905.68672
G0 F6000 X187.811 Y176.851
G1 F1500 X222.636 Y211.676 E909.78188
G0 F6000 X223.343 Y211.676
G1 F1500 X188.518 Y176.851 E913.87703
G0 F6000 X189.226 Y176.851
G1 F1500 X224.051 Y211.676 E917.97218
G0 F6000 X224.758 Y211.676
G1 F1500 X189.933 Y176.851 E922.06734
G0 F6000 X190.640 Y176.851
G1 F1500 X225.465 Y211.676 E926.16249
G0 F6000 X226.172 Y211.676
G1 F1500 X191.347 Y176.851 E930.25764
G0 F6000 X192.054 Y176.851
G1 F1500 X226.879 Y211.676 E934.35280
G0 F6000 X227.586 Y211.676
G1 F1500 X192.761 Y176.851 E938.44795
G0 F6000 X193.468 Y176.851
G1 F1500 X228.293 Y211.676 E942.54310
G0 F6000 X229.000 Y211.676
G1 F1500 X194.175 Y176.851 E946.63825
G0 F6000 X194.882 Y176.851
G1 F1500 X229.707 Y211.676 E950.73341
G0 F6000 X230.414 Y211.676
G1 F1500 X195.589 Y176.851 E954.82856
G0 F6000 X196.297 Y176.851
G1 F1500 X231.122 Y211.676 E958.92371
G0 F6000 X231.829 Y211.676
G1 F1500 X197.004 Y176.851 E963.01887
G0 F6000 X197.711 Y176.851
G1 F1500 X232.536 Y211.676 E967.11402
G0 F6000 X233.243 Y211.676
G1 F1500 X198.418 Y176.851 E971.20917
G0 F6000 X199.125 Y176.851
G1 F1500 X233.950 Y211.676 E975.30433
G0 F6000 X234.657 Y211.676
G1 F1500 X199.832 Y176.851 E979.39948
G0 F6000 X200.539 Y176.851
G1 F1500 X235.364 Y211.676 E983.49463
G0 F6000 X236.071 Y211.676
G1 F1500 X201.246 Y176.851 E987.58979
G0 F6000 X201.953 Y176.851
G1 F1500 X236.778 Y211.676 E991.68494
G0 F6000 X237.486 Y211.676
G1 F1500 X202.661 Y176.851 E995.78009
G0 F6000 X203.368 Y176.851
G1 F1500 X238.193 Y211.676 E999.87524
G0 F6000 X238.900 Y211.676
G1 F1500 X204.075 Y176.851 E1003.97040
G0 F6000 X204.782 Y176.851
G1 F1500 X239.607 Y211.676 E1008.06555
G0 F6000 X240.314 Y211.676
G1 F1500 X205.489 Y176.851 E1012.16070
G0 F6000 X206.196 Y176.851
G1 F1500 X241.021 Y211.676 E1016.25586
G0 F6000 X241.728 Y211.676
